X:2541
T:Cantar de Ronda (CT 030)
R:Ronda
C:Tradicional
S:Música Tradicional Asturiana, (C) Tello & Tito. Asturies, 2001.
S:http://pagina.de/MusTradAst <telloytito@asturies.org>
N:Canción de Ronda, transcrita en Uviéu.
O:Uviéu
A:Asturies
Z:Cancioneru de Torner 030
M:3/4
L:1/8
Q:1/4=78
W:Voy a la fuente por agua, (bis)
W:voy al molino contigo, (bis)
W:por ver el agua correr
W:y no por otro motivo.
K:C
G/ G>A
|(c3 B) d>d|B3/2(3c//d//c// B4-|B2 z3/2 G/ G>A|
(c3 B) d>d|B3/2(3c//d//c// B z/ G/ G>A|
(c3 B) d>B|G3/2(3A//B//A// G4-|G2 z3/2 G/ G>A|
(c3 B) d>d|B3/2(3c//d//c// B4-|B2 z3/2 G/ G>A|
(c3 B) d>d|B3/2(3c//d//c// B z/ G/ G>A|
(c3 B) d>B|G3/2(3A//B//A// G4-|G2 z6||


